build/img/crown.svg

<svg width="44" height="40" viewBox="0 0 44 40" fill="none" xmlns="http://www.w3.org/2000/svg">
<path fill-rule="evenodd" clip-rule="evenodd" d="M43.3188 15.5459C43.3188 9.38217 38.3034 4.36681 32.1397 4.36681C30.6571 4.36681 29.2437 4.66294 27.9476 5.19003V3.8428H26.5502V5.87951C26.0603 6.16369 25.5923 6.48028 25.1528 6.83304V3.31878H23.7555V8.17686C23.2236 8.78105 22.7508 9.43709 22.3581 10.1464V0H20.9607V10.1457C20.568 9.43641 20.0952 8.78037 19.5633 8.17618V3.31878H18.1659V6.83304C17.7265 6.48028 17.2585 6.16369 16.7686 5.87951V3.8428H15.3712V5.19003C14.0751 4.66294 12.6617 4.36681 11.179 4.36681C5.01535 4.36681 0 9.38217 0 15.5459C0 17.9674 0.782615 20.2054 2.09607 22.0381V24.6288H3.49345V23.6429C3.92945 24.0567 4.39274 24.4415 4.89083 24.782V27.4236H6.28821V25.5827C6.73888 25.8034 7.20354 25.9989 7.68559 26.1582V30.917H9.08297V26.5209C9.60563 26.6208 10.1429 26.6761 10.6878 26.6997C10.5551 27.3874 10.4804 28.095 10.4804 28.821C10.4804 34.9847 15.4957 40 21.6594 40C27.8231 40 32.8384 34.9847 32.8384 28.821C32.8384 28.095 32.7637 27.3874 32.631 26.6997C33.1765 26.6761 33.7132 26.6202 34.2358 26.5209V30.917H35.6332V26.1582C36.1153 25.9989 36.5799 25.8034 37.0306 25.5834V27.4236H38.428V24.781C38.926 24.4409 39.3893 24.0567 39.8253 23.6422V24.6288H41.2227V22.0381C42.5362 20.2054 43.3188 17.9674 43.3188 15.5459ZM11.179 5.76419C16.0972 5.76419 20.1679 9.41628 20.8488 14.1485H14.9393L14.0226 15.9825L11.8552 10.9262L9.23683 17.4727L7.20695 9.3518L4.45893 14.8472H1.43286C1.79346 9.77962 6.02143 5.76419 11.179 5.76419ZM1.43286 16.2445H5.32342L6.76754 13.3556L8.92979 22.0033L11.9009 14.5759L13.9257 19.3013L15.8031 15.5459H20.9607C20.9607 16.2698 20.8768 16.9886 20.7202 17.6893C16.1927 18.0687 12.4284 21.1528 11.0497 25.3214C5.95081 25.2535 1.79073 21.2688 1.43286 16.2445ZM21.6594 38.6026C16.2654 38.6026 11.8777 34.215 11.8777 28.821C11.8777 23.4269 16.2654 19.0393 21.6594 19.0393C27.0534 19.0393 31.4411 23.4269 31.4411 28.821C31.4411 34.215 27.0534 38.6026 21.6594 38.6026ZM32.269 25.3214C30.8904 21.1535 27.1261 18.0687 22.5986 17.69C22.442 16.9893 22.3581 16.2712 22.3581 15.5459C22.3581 10.1518 26.7457 5.76419 32.1397 5.76419C37.5338 5.76419 41.9214 10.1518 41.9214 15.5459C41.9214 20.8959 37.6027 25.2508 32.269 25.3214ZM20.9607 22.5327V23.9301H18.8646V33.7118H20.9607V35.1092H22.3581V33.7118C23.8994 33.7118 25.1528 32.4584 25.1528 30.917C25.1528 30.0836 24.7861 29.333 24.2048 28.8209C24.7861 28.3089 25.1528 27.5583 25.1528 26.7249C25.1528 25.1835 23.8994 23.9301 22.3581 23.9301V22.5327H20.9607ZM22.3581 32.3144H20.262V29.5196H22.3581C23.1287 29.5196 23.7555 30.1463 23.7555 30.917C23.7555 31.6877 23.1287 32.3144 22.3581 32.3144ZM23.7555 26.7249C23.7555 27.4955 23.1287 28.1223 22.3581 28.1223H20.262V25.3275H22.3581C23.1287 25.3275 23.7555 25.9542 23.7555 26.7249ZM16.2947 22.3789C17.7985 21.1262 19.7032 20.4367 21.6594 20.4367C26.2827 20.4367 30.0437 24.1976 30.0437 28.821C30.0437 30.7779 29.3542 32.6825 28.1008 34.1857L27.0282 33.2905C28.0711 32.0384 28.6463 30.451 28.6463 28.821C28.6463 24.9683 25.5121 21.8341 21.6594 21.8341C20.0293 21.8341 18.4426 22.4093 17.1899 23.4522L16.2947 22.3789ZM21.6594 35.8079C17.8067 35.8079 14.6725 32.6737 14.6725 28.821C14.6725 27.1909 15.2477 25.6035 16.2906 24.3515L15.218 23.4563C13.9646 24.9594 13.2751 26.8641 13.2751 28.821C13.2751 33.4444 17.036 37.2053 21.6594 37.2053C23.6156 37.2053 25.5202 36.5158 27.0241 35.2631L26.1289 34.1898C24.8761 35.2327 23.2894 35.8079 21.6594 35.8079ZM32.1397 23.094L27.1077 15.5458L32.1397 7.99774L37.1718 15.5458L32.1397 23.094ZM29.0369 15.1719L31.441 15.9733V11.5656L29.0369 15.1719ZM31.441 19.5261V17.4471L29.6588 16.8525L31.441 19.5261ZM34.6206 16.8532L32.8384 17.4471V19.5261L34.6206 16.8532ZM32.8384 11.5645V15.9733L35.2426 15.1713L32.8384 11.5645ZM2.09609 26.0262H3.49347V27.4236H2.09609V26.0262ZM6.28824 28.821H4.89086V30.2184H6.28824V28.821ZM7.68562 32.3144H9.083V33.7118H7.68562V32.3144ZM41.2227 26.0262H39.8253V27.4236H41.2227V26.0262ZM37.0306 28.821H38.4279V30.2184H37.0306V28.821ZM35.6332 32.3144H34.2359V33.7118H35.6332V32.3144ZM18.1659 0.873344H19.5633V2.27072H18.1659V0.873344ZM25.1529 0.873344H23.7555V2.27072H25.1529V0.873344Z" fill="url(#paint0_linear)"/>
<defs>
<linearGradient id="paint0_linear" x1="43.3188" y1="20" x2="3.83694e-07" y2="20" gradientUnits="userSpaceOnUse">
<stop stop-color="#FF9900"/>
<stop offset="1" stop-color="#FFE91A"/>
</linearGradient>
</defs>
</svg>

<svg width="44" height="40" viewBox="0 0 44 40" fill="none" xmlns="http://www.w3.org/2000/svg"><path fill-rule="evenodd" clip-rule="evenodd" d="M43.319 15.546c0-6.164-5.016-11.18-11.18-11.18a11.1 11.1 0 00-4.191.824V3.843H26.55V5.88c-.49.284-.958.6-1.397.953V3.319h-1.397v4.858a11.182 11.182 0 00-1.398 1.97V0h-1.397v10.146a11.183 11.183 0 00-1.398-1.97V3.32h-1.397v3.514a11.1 11.1 0 00-1.397-.953V3.843H15.37V5.19a11.1 11.1 0 00-4.192-.823C5.015 4.367 0 9.382 0 15.546c0 2.421.783 4.66 2.096 6.492v2.59h1.397v-.985c.436.414.9.799 1.398 1.139v2.642h1.397v-1.841c.45.22.916.416 1.398.575v4.759h1.397v-4.396c.523.1 1.06.155 1.605.179a11.176 11.176 0 00-.208 2.121C10.48 34.985 15.496 40 21.66 40c6.163 0 11.178-5.015 11.178-11.179 0-.726-.074-1.434-.207-2.121a11.19 11.19 0 001.605-.18v4.397h1.397v-4.759c.482-.16.947-.355 1.398-.575v1.84h1.397v-2.642c.498-.34.961-.724 1.397-1.139v.987h1.398v-2.59a11.108 11.108 0 002.096-6.493zm-32.14-9.782c4.918 0 8.989 3.652 9.67 8.384h-5.91l-.916 1.835-2.168-5.057-2.618 6.547-2.03-8.121-2.748 5.495H1.433c.36-5.067 4.588-9.083 9.746-9.083zm-9.746 10.48h3.89l1.445-2.888 2.162 8.647 2.97-7.427 2.026 4.725 1.877-3.755h5.158a9.83 9.83 0 01-.24 2.143c-4.528.38-8.293 3.464-9.671 7.632-5.1-.068-9.26-4.052-9.617-9.077zm20.226 22.359c-5.394 0-9.781-4.388-9.781-9.782s4.387-9.782 9.781-9.782c5.394 0 9.782 4.388 9.782 9.782s-4.388 9.782-9.782 9.782zM32.27 25.32c-1.379-4.168-5.143-7.252-9.67-7.631a9.828 9.828 0 01-.24-2.144c0-5.394 4.387-9.782 9.78-9.782 5.395 0 9.782 4.388 9.782 9.782 0 5.35-4.318 9.705-9.652 9.775zm-11.308-2.788v1.397h-2.096v9.782h2.096v1.397h1.397v-1.397a2.798 2.798 0 002.795-2.795 2.79 2.79 0 00-.948-2.096 2.788 2.788 0 00.948-2.096 2.798 2.798 0 00-2.795-2.795v-1.397h-1.397zm1.397 9.781h-2.096V29.52h2.096a1.4 1.4 0 011.398 1.397 1.4 1.4 0 01-1.398 1.397zm1.398-5.59a1.4 1.4 0 01-1.398 1.398h-2.096v-2.794h2.096a1.4 1.4 0 011.398 1.397zm-7.461-4.345a8.397 8.397 0 015.364-1.942c4.624 0 8.385 3.76 8.385 8.384a8.39 8.39 0 01-1.943 5.365l-1.073-.895a6.998 6.998 0 001.618-4.47 6.995 6.995 0 00-6.987-6.987c-1.63 0-3.216.575-4.47 1.618l-.894-1.073zm5.364 13.429a6.995 6.995 0 01-6.986-6.987c0-1.63.575-3.218 1.618-4.47l-1.073-.895a8.39 8.39 0 00-1.943 5.365c0 4.623 3.761 8.384 8.384 8.384a8.4 8.4 0 005.365-1.942l-.895-1.073a7 7 0 01-4.47 1.618zm10.48-12.714l-5.031-7.548 5.032-7.548 5.032 7.548-5.032 7.548zm-3.102-7.922l2.404.801v-4.407l-2.404 3.606zm2.404 4.354v-2.079l-1.782-.595 1.782 2.674zm3.18-2.673l-1.783.594v2.08l1.783-2.674zm-1.783-5.289v4.41l2.405-.803-2.405-3.606zM2.096 26.026h1.397v1.398H2.096v-1.398zm4.192 2.795H4.891v1.397h1.397v-1.397zm1.398 3.493h1.397v1.398H7.686v-1.398zm33.537-6.288h-1.398v1.398h1.398v-1.398zm-4.192 2.795h1.397v1.397H37.03v-1.397zm-1.398 3.493h-1.397v1.398h1.397v-1.398zM18.166.874h1.397V2.27h-1.397V.873zm6.987 0h-1.397V2.27h1.397V.873z" fill="url(#paint0_linear)"/><defs><linearGradient id="paint0_linear" x1="43.319" y1="20" x2="0" y2="20" gradientUnits="userSpaceOnUse"><stop stop-color="#F90"/><stop offset="1" stop-color="#FFE91A"/></linearGradient></defs></svg>
